X:516
T:Methlick Style, The
B:The Caledonian Companion, Hardie
Z:Nigel Gatherer
N:Simplified - grace notes removed
M:6/8
L:1/8
K:Eb
B, | E2e  G2e  | E2c    BGE    | BGc  BGE | GFE      C2D      |
     E2c  C2A  | B2G    A,2c   | B>cB AGF | G<E[EA,] [E2G,2] :|
z  | g3   f3   | edc    c2d    | eBc  BGE | GFF      F3       |
     g3   f3   | fg=a   b2g    | fdg  fdc | B3-      B3       |
     g3   f3   | edc    c2d    | eBc  BGE | GFE      C2D      |
     E<Ec C<CA | B,<B,G A,<A,c | B>cB AGF | G<E[EA,] [E2G,2] |]
<end>
<start>
